X:1
T:Title
%%score 1 { 2 | 3 }
L:1/8
Q:1/4=95
M:4/4
K:G
V:1 treble nm="Grand Piano, Soprano"
V:2 bass nm="Choir Pad, Petitio, LM"
V:3 bass 
V:1
 [DB][^DB][EB][FB]- [FB]2 [FA][=DF]- | [DF] [^DF]2 [FA]- [FA]4- | %2
w: By~William~Washburn~Sleeper,~1912 * * * * * *||
 [FA] [=FG]2 [Ec]- [Ec]2 [Ec][DB] | [DA][DG][DA][DB]- [DB]4- | [DB] D2 D- D3/2 z/ [^CG][DF]- | %5
w: |||
 [DF] [EF]2 [^DF]- [DF]2 [DA][EG]- | [EG] [GA]2 [GB]- [GB]2 [Gd][Ac] | %7
w: ||
 [GB][FB]- [FB]/[DA]/[DG]- [DG]4- | [DG]2 z2 z4 |] %9
w: ||
V:2
 B,A,G,F,- F, B,2 B,- | B, B,2 B,- B,4- | B, G,2 G,- G, A,2 F, | CB,A,G,- G,4- | %4
 G, B,2 A,- A,2 A,A,- | A, A,2 A,- A,2 F,G,- | G,[K:treble] ^C2 D- D2 B,D | %7
 DD- D/C/[K:bass]B,- B,4- | B,2 z2 z4 |] %9
V:3
 G,F,E,^D,- D, B,,2 B,,- | B,, B,,2 E,- E,4- | E, D,2 C,- C, A,,2 D, | D,E, .F,2 z4 | %4
 z G,2 F,- F,2 E,D,- | D, C,2 B,,- B,,2 B,,E,- | E, E,2 D,- D,2 D,F, | G,D,- D,/D,/G,,- G,,4- | %8
 G,,2 z2 z4 |] %9

